X: 1
T: Madame Vanoni
M: 4/4
L: 1/8
R: hornpipe
K: Gmin
B2 c2 d2 e2 | =efga b4 | F2 G2 A2 B2 | =Bcd=e fcAF |
B2 b2 A2 f2 | g2 e2 F2 d2 | EDEG cBAc |1 B2 B,6 :|2 B2 B,4 FE ||
[D2B2] [Bf][DB] (3[DB][DB][DB] [Bf][DB]  |(3[EB][EB][EB] [Bg][EB] (3[EB][EB][EB] [Bg][EB] |
(3[Ec][Ec][Ec] [cg][Ec] (3[=Ec][Ec][Ec] [cg][Ec] | (3[Fc][Fc][Fc] [ca][Fc]  (3[Fc][Fc][Fc] [ca][Fc] |
(3[^Fd][Fd][Fd] [da][Fd] (3[^Fd][Fd][Fd] [da][Fd] | (3[Gd][Gd][Gd] [db][Gd]  (3[EB][EB][EB] [Bg]e |
f2 F2 [A2f2] F2 | [D2B2] B,4 F>E |(3DBf (3fBD  (3DBf (3fBD |(3EBg (3gBE  (3EBg (3gBE |
(3=Ecg (3gcE (3=Ecg (3gcE | (3Fca (3acF  (3Fca (3acF |
(3^Fda (3adF (3^Fda (3adF |(3Gdb (3bdG (3EBg (3gBE | f2 F2 f2 A2 | B2 B,4 z2 |
